!!!COM: Brahms
!!!CNT: Deutscher
!!!TXO: Deutsche
!!!OTL: Liebe und Fru2hling II
!!!OPS: Op. 3
!!!ONM: No. 3
!!!LYR: von Fallersleben
!!!ENC: Ayako
!!!YOR: Editionpeters
!!!ODT: 1853
!!NB: Vocal melody and text only encoded.
**kern	**silbe
*staff1	*
*clefG2	*
*k[f#]	*
*M4/4	*
*MM[vivace]	*
=2	=2
2r	.
4r	.
8r	.
{8d	{Ich
=3	=3
4.d	muB
8e	hin-
4.f#}	-aus,
{8g	ich
=4	=4
(8a	muB
8b	|
8cc)	|
16r	.
16cc#	zu
(4cc#	dir,
8dd)}	|}
8r	.
=5	=5
4r	.
8r	.
{8b	{ich
(4a	muB
8g)	|
8f	es
=6	=6
4e	selbst
4a	dir
4g	sa-
8f#}	-gen:}
8r	.
=7	=7
{4d	{du
8d	bist
8e	mein
4.f	Fruh-
8g}	-ling,}
=8	=8
{(8a	du
8g	|
8cc)	|
16r	.
16cc#	nur
(4cc#	mir
8dd)}	|}
8r	.
=9	=9
4r	.
8r	.
{8b-	{in
(4a	die-
8g)	|
8b-	-sen
=10	=10
(4b	lich-
[4ee	|
8ee]	|
8dd	|
8cc)	|
8a	-ten
=11	=11
(4a	Ta-
4g)}	-gen.}
2r	.
=13	=13
2r	.
4r	.
8r	.
{8d	{Ich
=14	=14
*k[b-e-]	*
4.d	will
8e-	die
4.e-	Ro-
8e-	-sen
=15	=15
(8e-	nicht
8g	|
8cc)	|
8b-	mehr
(4b-	sehn,
8a)}	|}
8r	.
=16	=16
4r	.
8r	.
{8f	{nicht
4.f	mehr
8f#	die
=17	=17
(8f#	gru2-
8a	|
8dd)	|
8cc	-nen
4cc	Mat-
8b-}	-ten,}
{8b-	{ich
=18	=18
4dd	will
4cc	nicht
4b-	mehr
4a	zu
=19	=19
4g	Wal-
4a	-de
4f#}	gehn}
8r	.
{8a	{nach
=20	=20
4dd	Duft
4cc	und
4b-	Klang
4a	und
=21	=21
(4g	Schat-
4a)	|
4f#}	-ten.}
8r	.
{8d	{Ich
=22	=22
*k[f#c#]	*
4.d	will
8d	nicht
4.d	mehr
8d	der
=23	=23
(4d	Lu2f-
4f#	|
4b-)	|
4a	-te
=24	=24
(2a	Zug,
4g#)}	|}
4r	.
=25	=25
4r	.
8r	.
{8e	{nicht
4.e	mehr
8e#	der
=26	=26
(4e#	Wel-
4g#	|
4cc#)	|
4b	-len
=27	=27
2b	Rau-
4a}	-schen,}
8r	.
{8a	{ich
=28	=28
4cc	will
4b	nicht
4a	mehr
4g#	der
=29	=29
4f#	V2o-
4g#	-gel
4e#}	Flug}
8r	.
{8g#	{und
=30	=30
4cc#	ih-
4b	-rem
4a	Lie-
4g#	-de
=31	=31
(4f#	lau-
2g#	|
[4a	|
=32	=32
4a]	|
4b	|
4dd	|
4cc)	|
=32	=33
2.cc}	-schen.}
4r	.
=34	=34
*k[f#]	*
2r	.
4r	.
8r	.
{8d	{Ich
=35	=35
4.d	will
8e	hin-
4.f#	-aus,
8g	ich
=36	=36
(8a	will
8b	|
8cc)	|
16r	.
16cc#	zu
(4cc#	dir,
8dd)}	|}
8r	.
=37	=37
4r	.
8r	.
{8b	{ich
(4a	will
8g)	|
8f	es
=38	=38
4e	selbst
4a	dir
4g	sa -
8f#}	-gen:}
8r	.
=39	=39
{4d	{du
8d	bist
8e	mein
4.f	Fru2h-
8g	-ling,
=40	=40
(8a	du
8b	|
8cc)	|
16r	.
16cc#	nur
(4cc#	mir
8dd)}	|}
8r	.
=41	=41
4r	.
8r	.
{8b-	{in
(4a	die-
8g)	|
8b-	-sen
=42	=42
(4bn	lich-
[2.ee	|
=43	=43
2ee_	|
8ee]	|
8dd	|
8cc)	|
8a	-ten
=44	=44
(4a	Ta -
4g)}	-gen}
2r	.
*-	*-
